X:488
T: Helft Leutchen mir (5-84), S. 134
N: P0758
O: Lothringen
S: MERKELBACH-PINCK, Angelika: Verklingende Weisen, Bd 5, Kassel 1962]
R: Kriegslied, Trinklied?, wehmtig]
M: 2/4
L: 1/16
K: G
D4 | B3BG6e2 | e2d2d6
B2 | d2c2A4B4 | G8
B4 | B3BG6e2 | e3ed6
B2 | d2dcA4B4 | G8
d4 | d2c2A6e2 | e2d2B4
d4 | d2A2B2c2 | d4
c4 | B3AG6e2 | e3Bd6
B2 | d2dc2A3B4 | G8
d4 | g2B2B4c2e2 | e2A2A4
d4 | f2e2d4c2F2 | G8 |  |  |  |  |  |  |  |  |  |  |  |  |  |  |  |  |  |  |  |  |  |  |  |  |  |  |  |  |  |  |  |  |  |  |  |  |  |  |  |  |  | 
d4 | g2B2B4c2e2 | e2A2A4 |  |  |  |  |  |  |  |  |  |  |  |  |  |  |  |  |  |  |  |  |  |  |  |  |  |  |  |  |  |  |  |  |  |  |  |  |  |  | 
d4 | f2e2d4c2F2 | G8

